assets/img/components/pagination-header.svg

<svg xmlns="http://www.w3.org/2000/svg" width="578" height="145" fill="none" viewBox="0 0 578 145"><path fill="#286ad8" d="M394.576 0C416.349 0 434 17.853 434 39.875V145H289V0z"/><path fill="#286ad8" d="M289.879 39.424C289.879 17.651 272.026 0 250.004 0H144.879v145h145zM432.754 145V0h72.335c40.132 0 72.665 32.46 72.665 72.5S545.221 145 505.089 145z"/><path fill="#286ad8" d="M145 105.125V0C64.919 0 0 64.919 0 145h105.125C127.147 145 145 127.147 145 105.125"/><path fill="#1545bb" d="M209.609 107a2.74 2.74 0 0 1 2.113 1.005q.196.163.359.36.196.163.36.36.198.163.361.36.196.164.359.36.196.163.36.36.198.163.361.36.196.163.359.36.197.163.361.36.196.163.359.36.197.163.36.36.198.164.361.36.196.163.359.36.196.163.36.36.198.163.361.36c.067.055.139.105.2.167v-3.454a2.757 2.757 0 0 1 2.757-2.758h15.852a2.74 2.74 0 0 1 2.112 1.005q.196.163.359.359.196.163.36.361.198.163.361.36.196.163.359.359.196.163.36.361.197.163.36.36.197.163.36.359.197.163.36.361.197.163.36.36.196.163.36.359.198.165.361.361.196.163.359.36.196.163.36.36.198.163.361.36c.067.056.138.105.2.167v-3.455A2.76 2.76 0 0 1 245.68 107h15.852c.852 0 1.606.397 2.112 1.006q.196.163.359.36.196.163.36.36.197.163.36.36.196.163.36.359.196.163.36.361.197.164.36.36.196.163.36.359.196.163.36.361.197.163.36.36.196.163.36.359.196.165.361.361.196.163.359.36.196.163.36.36.198.163.361.36c.067.056.139.106.201.168v-3.456a2.757 2.757 0 0 1 2.756-2.758h15.852c.853 0 1.607.396 2.112 1.005q.197.163.36.36.196.163.36.36.196.163.361.36.196.164.359.36.196.163.36.36.196.163.36.36.196.163.36.36.196.163.36.36.197.163.36.36.196.163.36.36.196.163.36.36.197.163.36.36.196.163.36.36.196.163.361.36c.066.056.138.105.2.167v-3.454a2.76 2.76 0 0 1 2.757-2.758h15.851c.854 0 1.607.396 2.112 1.005a39 39 0 0 1 5.04 5.04c.049.04 20.535 20.514 31.983 31.955H209.284l-17.279-17.279a2.74 2.74 0 0 1-1.005-2.113v-15.85a2.76 2.76 0 0 1 2.757-2.758z" opacity=".4" style="mix-blend-mode:multiply"/><path fill="#5187df" d="M235.571 107h-15.852a2.757 2.757 0 0 0-2.757 2.757v15.851a2.757 2.757 0 0 0 2.757 2.757h15.852a2.756 2.756 0 0 0 2.756-2.757v-15.851a2.756 2.756 0 0 0-2.756-2.757M209.609 107h-15.852a2.757 2.757 0 0 0-2.757 2.757v15.851a2.757 2.757 0 0 0 2.757 2.757h15.852a2.757 2.757 0 0 0 2.757-2.757v-15.851a2.757 2.757 0 0 0-2.757-2.757"/><path fill="#1545bb" d="m200.51 117.683 3.134 3.134a.76.76 0 0 1 .221.562.77.77 0 0 1-.221.563.76.76 0 0 1-.562.221.76.76 0 0 1-.563-.221l-3.696-3.697a.77.77 0 0 1-.241-.562q0-.321.241-.563l3.696-3.696a.76.76 0 0 1 .563-.221q.341 0 .562.221a.76.76 0 0 1 .221.562.76.76 0 0 1-.221.563z"/><path fill="#5187df" d="M287.493 107h-15.852a2.756 2.756 0 0 0-2.756 2.757v15.851a2.756 2.756 0 0 0 2.756 2.757h15.852a2.757 2.757 0 0 0 2.757-2.757v-15.851a2.757 2.757 0 0 0-2.757-2.757M313.454 107h-15.852a2.756 2.756 0 0 0-2.756 2.757v15.851a2.756 2.756 0 0 0 2.756 2.757h15.852a2.757 2.757 0 0 0 2.757-2.757v-15.851a2.757 2.757 0 0 0-2.757-2.757"/><path fill="#1545bb" d="m306.241 117.681-3.133-3.134a.76.76 0 0 1-.221-.562q0-.342.221-.563a.76.76 0 0 1 .562-.221q.342 0 .563.221l3.696 3.697q.241.24.241.562 0 .321-.241.563l-3.696 3.696a.77.77 0 0 1-.563.221.76.76 0 0 1-.562-.221.76.76 0 0 1-.221-.563q0-.341.221-.562z"/><path fill="#5187df" d="M261.532 128.365H245.68a2.76 2.76 0 0 1-2.757-2.757v-15.851A2.76 2.76 0 0 1 245.68 107h15.852a2.76 2.76 0 0 1 2.757 2.757v15.851a2.76 2.76 0 0 1-2.757 2.757M245.68 108c-.969 0-1.757.788-1.757 1.757v15.851c0 .969.788 1.757 1.757 1.757h15.852a1.76 1.76 0 0 0 1.757-1.757v-15.851a1.76 1.76 0 0 0-1.757-1.757z"/></svg>

<svg width="578" height="145" viewBox="0 0 578 145" fill="none" xmlns="http://www.w3.org/2000/svg">
<path d="M394.576 0C416.349 0 434 17.8525 434 39.8751V145L289 145V0L394.576 0Z" fill="#286AD8"/>
<path d="M289.879 39.4242C289.879 17.6508 272.026 0 250.004 0L144.879 0V145H289.879V39.4242Z" fill="#286AD8"/>
<path d="M432.754 145V-0.000152588L505.089 -0.000152588C545.221 -0.000152588 577.754 32.4592 577.754 72.4999C577.754 112.541 545.221 145 505.089 145L432.754 145Z" fill="#286AD8"/>
<path d="M145 105.125V0C64.9187 0 0 64.9187 0 145H105.125C127.147 145 145 127.147 145 105.125Z" fill="#286AD8"/>
<g style="mix-blend-mode:multiply" opacity="0.4">
<path d="M209.609 107C210.463 107 211.216 107.396 211.722 108.005C211.853 108.114 211.972 108.234 212.081 108.365C212.212 108.474 212.332 108.593 212.441 108.725C212.573 108.834 212.693 108.954 212.802 109.085C212.933 109.194 213.052 109.314 213.161 109.445C213.292 109.554 213.412 109.673 213.521 109.805C213.653 109.914 213.773 110.034 213.882 110.165C214.013 110.274 214.132 110.394 214.241 110.525C214.372 110.634 214.493 110.754 214.602 110.885C214.733 110.994 214.852 111.114 214.961 111.245C215.092 111.354 215.212 111.474 215.321 111.605C215.453 111.715 215.573 111.834 215.682 111.965C215.813 112.074 215.932 112.194 216.041 112.325C216.172 112.434 216.292 112.553 216.401 112.685C216.533 112.794 216.653 112.914 216.762 113.045C216.829 113.1 216.901 113.15 216.962 113.212V109.758C216.962 108.235 218.196 107 219.719 107H235.571C236.424 107 237.177 107.396 237.683 108.005C237.814 108.114 237.933 108.233 238.042 108.364C238.173 108.473 238.293 108.593 238.402 108.725C238.534 108.834 238.654 108.954 238.763 109.085C238.894 109.194 239.013 109.313 239.122 109.444C239.253 109.553 239.373 109.673 239.482 109.805C239.614 109.914 239.733 110.034 239.842 110.165C239.973 110.274 240.093 110.393 240.202 110.524C240.333 110.633 240.453 110.753 240.562 110.885C240.694 110.994 240.813 111.114 240.922 111.245C241.053 111.354 241.173 111.473 241.282 111.604C241.414 111.714 241.534 111.834 241.643 111.965C241.774 112.074 241.893 112.194 242.002 112.325C242.133 112.434 242.253 112.553 242.362 112.685C242.494 112.794 242.614 112.914 242.723 113.045C242.79 113.101 242.861 113.15 242.923 113.212V109.757C242.923 108.236 244.16 107 245.68 107H261.532C262.384 107 263.138 107.397 263.644 108.006C263.775 108.115 263.894 108.235 264.003 108.366C264.134 108.475 264.254 108.594 264.363 108.726C264.495 108.835 264.614 108.955 264.723 109.086C264.854 109.195 264.974 109.314 265.083 109.445C265.214 109.554 265.334 109.674 265.443 109.806C265.575 109.915 265.694 110.035 265.803 110.166C265.934 110.275 266.054 110.394 266.163 110.525C266.294 110.634 266.414 110.754 266.523 110.886C266.655 110.995 266.774 111.115 266.883 111.246C267.014 111.355 267.134 111.474 267.243 111.605C267.374 111.715 267.494 111.835 267.604 111.966C267.735 112.075 267.854 112.195 267.963 112.326C268.094 112.435 268.214 112.554 268.323 112.686C268.455 112.795 268.575 112.915 268.684 113.046C268.751 113.102 268.823 113.152 268.885 113.214V109.758C268.885 108.235 270.119 107 271.641 107H287.493C288.346 107 289.1 107.396 289.605 108.005C289.737 108.114 289.856 108.234 289.965 108.365C290.096 108.474 290.216 108.593 290.325 108.725C290.456 108.834 290.576 108.954 290.686 109.085C290.817 109.194 290.936 109.314 291.045 109.445C291.176 109.554 291.296 109.673 291.405 109.805C291.536 109.914 291.656 110.034 291.765 110.165C291.896 110.274 292.016 110.394 292.125 110.525C292.256 110.634 292.376 110.754 292.485 110.885C292.617 110.994 292.736 111.114 292.845 111.245C292.976 111.354 293.096 111.474 293.205 111.605C293.336 111.714 293.456 111.834 293.565 111.965C293.697 112.074 293.816 112.194 293.925 112.325C294.056 112.434 294.176 112.553 294.285 112.685C294.416 112.794 294.536 112.914 294.646 113.045C294.712 113.101 294.784 113.15 294.846 113.212V109.758C294.846 108.235 296.081 107 297.603 107H313.454C314.308 107 315.061 107.396 315.566 108.005C317.386 109.517 319.096 111.226 320.606 113.045C320.655 113.085 341.141 133.559 352.589 145H209.284L192.005 127.721C191.396 127.215 191 126.462 191 125.608V109.758C191 108.235 192.235 107 193.757 107H209.609Z" fill="#1545BB"/>
</g>
<path d="M235.571 107H219.719C218.196 107 216.962 108.234 216.962 109.757V125.608C216.962 127.131 218.196 128.365 219.719 128.365H235.571C237.093 128.365 238.327 127.131 238.327 125.608V109.757C238.327 108.234 237.093 107 235.571 107Z" fill="#5187DF"/>
<path d="M209.609 107H193.757C192.235 107 191 108.234 191 109.757V125.608C191 127.131 192.235 128.365 193.757 128.365H209.609C211.132 128.365 212.366 127.131 212.366 125.608V109.757C212.366 108.234 211.132 107 209.609 107Z" fill="#5187DF"/>
<path d="M200.51 117.683L203.644 120.817C203.791 120.964 203.865 121.152 203.865 121.379C203.865 121.607 203.791 121.794 203.644 121.942C203.497 122.089 203.309 122.163 203.082 122.163C202.854 122.163 202.666 122.089 202.519 121.942L198.823 118.245C198.662 118.085 198.582 117.897 198.582 117.683C198.582 117.469 198.662 117.281 198.823 117.12L202.519 113.424C202.666 113.277 202.854 113.203 203.082 113.203C203.309 113.203 203.497 113.277 203.644 113.424C203.791 113.571 203.865 113.759 203.865 113.986C203.865 114.214 203.791 114.402 203.644 114.549L200.51 117.683Z" fill="#1545BB"/>
<path d="M287.493 107H271.641C270.119 107 268.885 108.234 268.885 109.757V125.608C268.885 127.131 270.119 128.365 271.641 128.365H287.493C289.016 128.365 290.25 127.131 290.25 125.608V109.757C290.25 108.234 289.016 107 287.493 107Z" fill="#5187DF"/>
<path d="M313.454 107H297.602C296.08 107 294.846 108.234 294.846 109.757V125.608C294.846 127.131 296.08 128.365 297.602 128.365H313.454C314.977 128.365 316.211 127.131 316.211 125.608V109.757C316.211 108.234 314.977 107 313.454 107Z" fill="#5187DF"/>
<path d="M306.241 117.681L303.108 114.547C302.96 114.4 302.887 114.212 302.887 113.985C302.887 113.757 302.96 113.57 303.108 113.422C303.255 113.275 303.442 113.201 303.67 113.201C303.898 113.201 304.085 113.275 304.233 113.422L307.929 117.119C308.09 117.279 308.17 117.467 308.17 117.681C308.17 117.895 308.09 118.083 307.929 118.244L304.233 121.94C304.085 122.087 303.898 122.161 303.67 122.161C303.442 122.161 303.255 122.087 303.108 121.94C302.96 121.793 302.887 121.605 302.887 121.377C302.887 121.15 302.96 120.962 303.108 120.815L306.241 117.681Z" fill="#1545BB"/>
<path d="M261.532 128.365H245.68C244.16 128.365 242.923 127.129 242.923 125.608V109.757C242.923 108.236 244.16 107 245.68 107H261.532C263.052 107 264.289 108.236 264.289 109.757V125.608C264.289 127.129 263.052 128.365 261.532 128.365ZM245.68 108C244.711 108 243.923 108.788 243.923 109.757V125.608C243.923 126.577 244.711 127.365 245.68 127.365H261.532C262.5 127.365 263.289 126.577 263.289 125.608V109.757C263.289 108.788 262.5 108 261.532 108H245.68Z" fill="#5187DF"/>
</svg>
